X:1
T:Let Your Light Shine Out
T:Let Your Light Shine Out
T:William Howard Doane
T:Frances Jane (Fanny) Crosby, 1893
T:Public Domain Courtesy of the Cyber Hymnal™
C:William Howard Doane
Z:Public Domain
Z:Courtesy of the Cyber Hymnal™
%%score ( 1 2 ) ( 3 4 )
L:1/8
Q:1/4=110
M:4/4
K:Bb
V:1 treble 
V:2 treble 
V:3 bass 
V:4 bass 
V:1
 [DF]2 | [Fd]3 [Ec] [DB]2 [FA]2 | [FA][FA] [EG]2 [DF]2 [DF]2 | [EA]3 [EG] [EF]2 [CE]2 | %4
w: 1.~O|let your light, tho’|lit- tle, shine out, Our|Lord’s com- mand ful-|
w: 2.~O|let your light shine|stead- i- ly on, That|all the world, be-|
w: 3.~O|let your light shine|cheer- ful- ly on, When|cloud and storm are|
w: 4.~O|let your light shine|peace- ful- ly on Till|earth- ly cares are|
 [EG]2 [DF]4 [DF]2 | [Fd]3 [Fc] [FB]2 [FA]2 | [FA][FA] [EG]2 [DF]2 [FG]2 | %7
w: fill- ing, To|live for Him wher-|ev- er we go, And|
w: hold- ing, May|glor- i- fy your|Fa- ther a- bove, And|
w: break- ing, Its|beams may lead some|sor- row- op- pressed To|
w: end- ed, And|night and gloom shall|van- ish a- way In|
 [FA]2 [GB]2 [=EG]2 [EA]2 | F6 ||"^Refrain" [EF]2 | ([DF]2 [Fd]2 [DB]2) FF | %11
w: seek His will to|do.|||
w: praise His bound- less|love.|Shine|on, * * lit- tle|
w: yon- der Ark of|Rest.|||
w: joy’s e- ter- nal|day.|||
 [EG]2 [EB]2 [DF]2 [FB]2 | [FA]2 [FB]2 [Fc]2 [Fd]2 | [Ae]6 F2 | ([DF]2 [Fd]2 [DB]2) [DF][DF] | %15
w: ||||
w: light, shine on, Shine|on so bright and|clear; Shine|on, * * lit- tle|
w: ||||
w: ||||
 [EG]2 [GB]2 !fermata![Ge]2 [EG]2 | [DF]2 [Fd]2 [Ec]2 ([DB][EA]) | [DB]6 |] %18
w: |||
w: light, and bring A|smile for ev- ’ry *|tear.|
w: |||
w: |||
V:2
 x2 | x8 | x8 | x8 | x8 | x8 | x8 | x8 | F6 || x2 | x6 FF | x8 | x8 | x6 (FE) | x8 | x8 | x8 | %17
 x6 |] %18
V:3
 [B,,B,]2 | [B,,B,]3 [B,,F,] [B,,F,]2 [D,B,]2 | [E,B,][E,B,] [E,B,]2 [B,,B,]2 [B,,B,]2 | %3
w: ~|~ ~ ~ ~|~ ~ ~ ~ ~|
 [F,C]3 [F,B,] [F,A,]2 [F,A,]2 | [B,,B,]2 [B,,B,]4 [B,,B,]2 | [B,,B,]3 [B,,E] [B,,D]2 [D,B,]2 | %6
w: ~ ~ ~ ~|~ ~ ~|~ ~ ~ ~|
 [E,B,][E,B,] [E,B,]2 [B,,B,]2 [B,,D]2 | [C,C]2 [C,C]2 [C,B,]2 [C,B,]2 | [F,A,]6 || [F,A,]2 | %10
w: ~ ~ ~ ~ ~|~ ~ ~ ~|~|Shine|
 [B,,B,]2 [B,,B,]2 [B,,B,]2 [D,B,][D,B,] | [E,B,]2 [G,B,]2 B,2 [B,,D]2 | %12
w: on, shine on ~ ~|~ ~ ~ ~|
 [F,C]2 [F,D]2 [F,A,]2 [F,B,]2 | [F,C]2 [F,C]2 [F,C]2 [F,A,]2 | %14
w: ~ ~ ~ ~|~ so clear; Shine|
 [B,,B,]2 [B,,B,]2 [B,,B,]2 [B,,B,][B,,B,] | [E,B,]2 [E,E]2 !fermata![E,B,]2 [E,B,]2 | %16
w: on, shine on, * *||
 [F,B,]2 [F,B,]2 [F,A,]2 (B,C) | [B,,B,]6 |] %18
w: ||
V:4
 x2 | x8 | x8 | x8 | x8 | x8 | x8 | x8 | x6 || x2 | x8 | x4 B,2 x2 | x8 | x8 | x8 | x8 | x6 F,2 | %17
 x6 |] %18

